versioned_docs/version-3.X/reference/data-models/aws/img/aws_ec2_volume_type.svg

<svg xmlns="http://www.w3.org/2000/svg" xmlns:xlink="http://www.w3.org/1999/xlink" width="335" height="1324" preserveAspectRatio="none" style="width:335px;height:1324px;background:#00000000"><a xlink:actuate="onRequest" xlink:href="#a" xlink:show="new" xlink:title="#aws_resource" xlink:type="simple" target="_top"><rect id="a" width="155" height="70.594" x="7" y="504" fill="#3D176E" rx="2.5" ry="2.5" style="stroke:#000d19;stroke-width:1.5"/><circle cx="22" cy="523.894" r="11" fill="#E98DF7" style="stroke:#000d19;stroke-width:1"/><path d="M24.969 529.535q-.578.297-1.219.438-.64.156-1.344.156-2.5 0-3.828-1.64-1.312-1.657-1.312-4.782t1.312-4.781q1.328-1.657 3.828-1.657.703 0 1.344.157.656.156 1.219.453v2.719q-.625-.578-1.219-.844-.594-.281-1.219-.281-1.343 0-2.031 1.078-.688 1.062-.688 3.156 0 2.094.688 3.172.688 1.062 2.031 1.062.625 0 1.219-.265.594-.282 1.219-.86v2.72Z"/><text x="41" y="529.78" fill="#D9B8FF" font-family="Helvetica" font-size="17" textLength="113">aws_resource</text><path d="M8 543.789h153" style="stroke:#000d19;stroke-width:1.5"/><text x="18" y="563" fill="#D9B8FF" font-family="sans-serif" font-size="11" font-weight="bold" textLength="21">arn</text><text x="39" y="563" fill="#D9B8FF" font-family="sans-serif" font-size="11" textLength="41">: string</text></a><a xlink:actuate="onRequest" xlink:href="#b" xlink:show="new" xlink:title="#quota" xlink:type="simple" target="_top"><rect id="b" width="134" height="116.203" x="161.5" y="635" fill="#3D176E" rx="2.5" ry="2.5" style="stroke:#000d19;stroke-width:1.5"/><circle cx="196.3" cy="654.894" r="11" fill="#E98DF7" style="stroke:#000d19;stroke-width:1"/><path d="M199.269 660.535q-.578.297-1.219.438-.64.156-1.344.156-2.5 0-3.828-1.64-1.312-1.657-1.312-4.782t1.312-4.781q1.328-1.657 3.828-1.657.703 0 1.344.157.656.156 1.219.453v2.719q-.625-.578-1.219-.844-.594-.281-1.219-.281-1.343 0-2.031 1.078-.688 1.062-.688 3.156 0 2.094.688 3.172.688 1.062 2.031 1.062.625 0 1.219-.265.594-.282 1.219-.86v2.72Z"/><text x="219.7" y="660.78" fill="#D9B8FF" font-family="Helvetica" font-size="17" textLength="48">quota</text><path d="M162.5 674.789h132" style="stroke:#000d19;stroke-width:1.5"/><text x="172.5" y="694" fill="#D9B8FF" font-family="sans-serif" font-size="11" font-weight="bold" textLength="37">quota</text><text x="209.5" y="694" fill="#D9B8FF" font-family="sans-serif" font-size="11" textLength="46">: double</text><text x="172.5" y="716.804" fill="#D9B8FF" font-family="sans-serif" font-size="11" font-weight="bold" textLength="39">usage</text><text x="211.5" y="716.804" fill="#D9B8FF" font-family="sans-serif" font-size="11" textLength="46">: double</text><text x="172.5" y="739.609" fill="#D9B8FF" font-family="sans-serif" font-size="11" font-weight="bold" textLength="71">quota_type</text><text x="243.5" y="739.609" fill="#D9B8FF" font-family="sans-serif" font-size="11" textLength="41">: string</text></a><a xlink:actuate="onRequest" xlink:href="#c" xlink:show="new" xlink:title="#resource" xlink:type="simple" target="_top"><rect id="c" width="195" height="275.836" x="15" y="7" fill="#3D176E" rx="2.5" ry="2.5" style="stroke:#000d19;stroke-width:1.5"/><circle cx="67.75" cy="26.895" r="11" fill="#E98DF7" style="stroke:#000d19;stroke-width:1"/><path d="M70.719 32.535q-.578.297-1.219.438-.64.156-1.344.156-2.5 0-3.828-1.64-1.312-1.657-1.312-4.782t1.312-4.781q1.328-1.656 3.828-1.656.703 0 1.344.156.656.156 1.219.453v2.719q-.625-.578-1.219-.844-.594-.281-1.219-.281-1.344 0-2.031 1.078-.688 1.062-.688 3.156 0 2.094.688 3.172.688 1.062 2.031 1.062.625 0 1.219-.265.594-.281 1.219-.86v2.72Z"/><text x="93.25" y="32.78" fill="#D9B8FF" font-family="Helvetica" font-size="17" textLength="71">resource</text><path d="M16 46.789h193" style="stroke:#000d19;stroke-width:1.5"/><text x="26" y="65.999" fill="#D9B8FF" font-family="sans-serif" font-size="11" font-weight="bold" textLength="12">id</text><text x="38" y="65.999" fill="#D9B8FF" font-family="sans-serif" font-size="11" textLength="41">: string</text><text x="26" y="88.804" fill="#D9B8FF" font-family="sans-serif" font-size="11" font-weight="bold" textLength="28">tags</text><text x="54" y="88.804" fill="#D9B8FF" font-family="sans-serif" font-size="11" textLength="145">: dictionary[string, string]</text><text x="26" y="111.609" fill="#D9B8FF" font-family="sans-serif" font-size="11" font-weight="bold" textLength="35">name</text><text x="61" y="111.609" fill="#D9B8FF" font-family="sans-serif" font-size="11" textLength="41">: string</text><text x="26" y="134.414" fill="#D9B8FF" font-family="sans-serif" font-size="11" font-weight="bold" textLength="35">ctime</text><text x="61" y="134.414" fill="#D9B8FF" font-family="sans-serif" font-size="11" textLength="58">: datetime</text><text x="26" y="157.218" fill="#D9B8FF" font-family="sans-serif" font-size="11" font-weight="bold" textLength="24">age</text><text x="50" y="157.218" fill="#D9B8FF" font-family="sans-serif" font-size="11" textLength="55">: duration</text><text x="26" y="180.023" fill="#D9B8FF" font-family="sans-serif" font-size="11" font-weight="bold" textLength="39">mtime</text><text x="65" y="180.023" fill="#D9B8FF" font-family="sans-serif" font-size="11" textLength="58">: datetime</text><text x="26" y="202.828" fill="#D9B8FF" font-family="sans-serif" font-size="11" font-weight="bold" textLength="75">last_update</text><text x="101" y="202.828" fill="#D9B8FF" font-family="sans-serif" font-size="11" textLength="55">: duration</text><text x="26" y="225.632" fill="#D9B8FF" font-family="sans-serif" font-size="11" font-weight="bold" textLength="36">atime</text><text x="62" y="225.632" fill="#D9B8FF" font-family="sans-serif" font-size="11" textLength="58">: datetime</text><text x="26" y="248.437" fill="#D9B8FF" font-family="sans-serif" font-size="11" font-weight="bold" textLength="74">last_access</text><text x="100" y="248.437" fill="#D9B8FF" font-family="sans-serif" font-size="11" textLength="55">: duration</text><text x="26" y="271.242" fill="#D9B8FF" font-family="sans-serif" font-size="11" font-weight="bold" textLength="27">kind</text><text x="53" y="271.242" fill="#D9B8FF" font-family="sans-serif" font-size="11" textLength="41">: string</text></a><a xlink:actuate="onRequest" xlink:href="#d" xlink:show="new" xlink:title="#type" xlink:type="simple" target="_top"><rect id="d" width="79" height="39.789" x="189" y="872" fill="#3D176E" rx="2.5" ry="2.5" style="stroke:#000d19;stroke-width:1.5"/><circle cx="204" cy="891.894" r="11" fill="#E98DF7" style="stroke:#000d19;stroke-width:1"/><path d="M206.969 897.535q-.578.297-1.219.438-.64.156-1.344.156-2.5 0-3.828-1.64-1.312-1.657-1.312-4.782t1.312-4.781q1.328-1.657 3.828-1.657.703 0 1.344.157.656.156 1.219.453v2.719q-.625-.578-1.219-.844-.594-.281-1.219-.281-1.344 0-2.031 1.078-.688 1.062-.688 3.156 0 2.094.688 3.172.688 1.062 2.031 1.062.625 0 1.219-.265.594-.282 1.219-.86v2.72Z"/><text x="223" y="897.78" fill="#D9B8FF" font-family="Helvetica" font-size="17" textLength="37">type</text></a><a xlink:actuate="onRequest" xlink:href="#e" xlink:show="new" xlink:title="#aws_ec2_volume_type" xlink:type="simple" target="_top"><rect id="e" width="231" height="70.594" x="8" y="1247" fill="#3D176E" rx="2.5" ry="2.5" style="stroke:#000d19;stroke-width:1.5"/><circle cx="23" cy="1266.895" r="11" fill="#E98DF7" style="stroke:#000d19;stroke-width:1"/><path d="M25.969 1272.535q-.578.297-1.219.438-.64.156-1.344.156-2.5 0-3.828-1.64-1.312-1.657-1.312-4.782t1.312-4.781q1.328-1.656 3.828-1.656.703 0 1.344.156.656.156 1.219.453v2.719q-.625-.578-1.219-.844-.594-.281-1.219-.281-1.343 0-2.031 1.078-.688 1.062-.688 3.156 0 2.094.688 3.172.688 1.062 2.031 1.062.625 0 1.219-.265.594-.281 1.219-.86v2.72Z"/><text x="42" y="1272.78" fill="#D9B8FF" font-family="Helvetica" font-size="17" textLength="189">aws_ec2_volume_type</text><path d="M9 1286.789h229" style="stroke:#000d19;stroke-width:1.5"/><text x="19" y="1305.999" fill="#D9B8FF" font-family="sans-serif" font-size="11" font-weight="bold" textLength="21">arn</text><text x="40" y="1305.999" fill="#D9B8FF" font-family="sans-serif" font-size="11" textLength="41">: string</text></a><a xlink:actuate="onRequest" xlink:href="#f" xlink:show="new" xlink:title="#volume_type" xlink:type="simple" target="_top"><rect id="f" width="168" height="93.398" x="143.5" y="1033" fill="#3D176E" rx="2.5" ry="2.5" style="stroke:#000d19;stroke-width:1.5"/><circle cx="166.15" cy="1052.895" r="11" fill="#E98DF7" style="stroke:#000d19;stroke-width:1"/><path d="M169.119 1058.535q-.578.297-1.219.438-.64.156-1.344.156-2.5 0-3.828-1.64-1.312-1.657-1.312-4.782t1.312-4.781q1.328-1.656 3.828-1.656.703 0 1.344.156.656.156 1.219.453v2.719q-.625-.578-1.219-.844-.594-.281-1.219-.281-1.344 0-2.031 1.078-.688 1.062-.688 3.156 0 2.094.688 3.172.688 1.062 2.031 1.062.625 0 1.219-.265.594-.281 1.219-.86v2.72Z"/><text x="186.85" y="1058.78" fill="#D9B8FF" font-family="Helvetica" font-size="17" textLength="109">volume_type</text><path d="M144.5 1072.789h166" style="stroke:#000d19;stroke-width:1.5"/><text x="154.5" y="1091.999" fill="#D9B8FF" font-family="sans-serif" font-size="11" font-weight="bold" textLength="80">volume_type</text><text x="234.5" y="1091.999" fill="#D9B8FF" font-family="sans-serif" font-size="11" textLength="41">: string</text><text x="154.5" y="1114.804" fill="#D9B8FF" font-family="sans-serif" font-size="11" font-weight="bold" textLength="100">ondemand_cost</text><text x="254.5" y="1114.804" fill="#D9B8FF" font-family="sans-serif" font-size="11" textLength="46">: double</text></a><a xlink:actuate="onRequest" xlink:href="#g" xlink:show="new" xlink:title="#phantom_resource" xlink:type="simple" target="_top"><rect id="g" width="198" height="39.789" x="130.5" y="404" fill="#3D176E" rx="2.5" ry="2.5" style="stroke:#000d19;stroke-width:1.5"/><circle cx="145.5" cy="423.894" r="11" fill="#E98DF7" style="stroke:#000d19;stroke-width:1"/><path d="M148.469 429.535q-.578.297-1.219.438-.64.156-1.344.156-2.5 0-3.828-1.64-1.312-1.657-1.312-4.782t1.312-4.781q1.328-1.656 3.828-1.656.703 0 1.344.156.656.156 1.219.453v2.719q-.625-.579-1.219-.844-.594-.281-1.219-.281-1.344 0-2.031 1.078-.688 1.062-.688 3.156 0 2.094.688 3.172.688 1.062 2.031 1.062.625 0 1.219-.265.594-.281 1.219-.86v2.72Z"/><text x="164.5" y="429.78" fill="#D9B8FF" font-family="Helvetica" font-size="17" textLength="156">phantom_resource</text></a><path fill="none" d="M101.29 303.1c-5.27 73.91-11.09 155.54-14.31 200.62m7.34-201.27 8.41-19.45 5.56 20.45-13.97-1zm135.03 161.8c-.17 44.98-.44 119.08-.64 170.49m-6.36-170.56 7.08-19.98 6.92 20.03-14-.05zm6.15 307.09v100.44m-7-100.46 7-20 7 20h-14zM85.79 595.42c1.17 54.65 2.71 140.9 2.71 215.58v269.5c0 59.15 14.89 126.67 25.25 166.46M78.78 595.23l6.56-20.15 7.44 19.85-14 .3zm115.77 548.94c-17.55 33.94-38.47 74.37-53.05 102.54m46.99-106.05 15.41-14.55-2.97 20.98-12.44-6.43zm39.8-208.5c-.16 29.4-.38 69.72-.54 100.6m-6.46-100.64 7.11-19.97 6.89 20.04-14-.07zm-42.97-630.29c17.26 40.86 33.65 79.68 43.05 101.92m-49.55-99.32-1.33-21.15 14.23 15.7-12.9 5.45z" style="stroke:#ffaf37;stroke-width:2"/></svg>

<svg xmlns="http://www.w3.org/2000/svg" xmlns:xlink="http://www.w3.org/1999/xlink" width="335" height="1324" preserveAspectRatio="none" style="width:335px;height:1324px;background:#00000000"><a xlink:actuate="onRequest" xlink:href="#a" xlink:show="new" xlink:title="#aws_resource" xlink:type="simple" target="_top"><rect id="a" width="155" height="70.594" x="7" y="504" fill="#3D176E" rx="2.5" ry="2.5" style="stroke:#000d19;stroke-width:1.5"/><circle cx="22" cy="523.894" r="11" fill="#E98DF7" style="stroke:#000d19;stroke-width:1"/><path d="M24.969 529.535q-.578.297-1.219.438-.64.156-1.344.156-2.5 0-3.828-1.64-1.312-1.657-1.312-4.782t1.312-4.781q1.328-1.657 3.828-1.657.703 0 1.344.157.656.156 1.219.453v2.719q-.625-.578-1.219-.844-.594-.281-1.219-.281-1.343 0-2.031 1.078-.688 1.062-.688 3.156 0 2.094.688 3.172.688 1.062 2.031 1.062.625 0 1.219-.265.594-.282 1.219-.86v2.72Z"/><text x="41" y="529.78" fill="#D9B8FF" font-family="Helvetica" font-size="17" textLength="113">aws_resource</text><path d="M8 543.789h153" style="stroke:#000d19;stroke-width:1.5"/><text x="18" y="563" fill="#D9B8FF" font-family="sans-serif" font-size="11" font-weight="bold" textLength="21">arn</text><text x="39" y="563" fill="#D9B8FF" font-family="sans-serif" font-size="11" textLength="41">: string</text></a><a xlink:actuate="onRequest" xlink:href="#b" xlink:show="new" xlink:title="#quota" xlink:type="simple" target="_top"><rect id="b" width="134" height="116.203" x="161.5" y="635" fill="#3D176E" rx="2.5" ry="2.5" style="stroke:#000d19;stroke-width:1.5"/><circle cx="196.3" cy="654.894" r="11" fill="#E98DF7" style="stroke:#000d19;stroke-width:1"/><path d="M199.269 660.535q-.578.297-1.219.438-.64.156-1.344.156-2.5 0-3.828-1.64-1.312-1.657-1.312-4.782t1.312-4.781q1.328-1.657 3.828-1.657.703 0 1.344.157.656.156 1.219.453v2.719q-.625-.578-1.219-.844-.594-.281-1.219-.281-1.343 0-2.031 1.078-.688 1.062-.688 3.156 0 2.094.688 3.172.688 1.062 2.031 1.062.625 0 1.219-.265.594-.282 1.219-.86v2.72Z"/><text x="219.7" y="660.78" fill="#D9B8FF" font-family="Helvetica" font-size="17" textLength="48">quota</text><path d="M162.5 674.789h132" style="stroke:#000d19;stroke-width:1.5"/><text x="172.5" y="694" fill="#D9B8FF" font-family="sans-serif" font-size="11" font-weight="bold" textLength="37">quota</text><text x="209.5" y="694" fill="#D9B8FF" font-family="sans-serif" font-size="11" textLength="46">: double</text><text x="172.5" y="716.804" fill="#D9B8FF" font-family="sans-serif" font-size="11" font-weight="bold" textLength="39">usage</text><text x="211.5" y="716.804" fill="#D9B8FF" font-family="sans-serif" font-size="11" textLength="46">: double</text><text x="172.5" y="739.609" fill="#D9B8FF" font-family="sans-serif" font-size="11" font-weight="bold" textLength="71">quota_type</text><text x="243.5" y="739.609" fill="#D9B8FF" font-family="sans-serif" font-size="11" textLength="41">: string</text></a><a xlink:actuate="onRequest" xlink:href="#c" xlink:show="new" xlink:title="#resource" xlink:type="simple" target="_top"><rect id="c" width="195" height="275.836" x="15" y="7" fill="#3D176E" rx="2.5" ry="2.5" style="stroke:#000d19;stroke-width:1.5"/><circle cx="67.75" cy="26.895" r="11" fill="#E98DF7" style="stroke:#000d19;stroke-width:1"/><path d="M70.719 32.535q-.578.297-1.219.438-.64.156-1.344.156-2.5 0-3.828-1.64-1.312-1.657-1.312-4.782t1.312-4.781q1.328-1.656 3.828-1.656.703 0 1.344.156.656.156 1.219.453v2.719q-.625-.578-1.219-.844-.594-.281-1.219-.281-1.344 0-2.031 1.078-.688 1.062-.688 3.156 0 2.094.688 3.172.688 1.062 2.031 1.062.625 0 1.219-.265.594-.281 1.219-.86v2.72Z"/><text x="93.25" y="32.78" fill="#D9B8FF" font-family="Helvetica" font-size="17" textLength="71">resource</text><path d="M16 46.789h193" style="stroke:#000d19;stroke-width:1.5"/><text x="26" y="65.999" fill="#D9B8FF" font-family="sans-serif" font-size="11" font-weight="bold" textLength="12">id</text><text x="38" y="65.999" fill="#D9B8FF" font-family="sans-serif" font-size="11" textLength="41">: string</text><text x="26" y="88.804" fill="#D9B8FF" font-family="sans-serif" font-size="11" font-weight="bold" textLength="28">tags</text><text x="54" y="88.804" fill="#D9B8FF" font-family="sans-serif" font-size="11" textLength="145">: dictionary[string, string]</text><text x="26" y="111.609" fill="#D9B8FF" font-family="sans-serif" font-size="11" font-weight="bold" textLength="35">name</text><text x="61" y="111.609" fill="#D9B8FF" font-family="sans-serif" font-size="11" textLength="41">: string</text><text x="26" y="134.414" fill="#D9B8FF" font-family="sans-serif" font-size="11" font-weight="bold" textLength="35">ctime</text><text x="61" y="134.414" fill="#D9B8FF" font-family="sans-serif" font-size="11" textLength="58">: datetime</text><text x="26" y="157.218" fill="#D9B8FF" font-family="sans-serif" font-size="11" font-weight="bold" textLength="24">age</text><text x="50" y="157.218" fill="#D9B8FF" font-family="sans-serif" font-size="11" textLength="55">: duration</text><text x="26" y="180.023" fill="#D9B8FF" font-family="sans-serif" font-size="11" font-weight="bold" textLength="39">mtime</text><text x="65" y="180.023" fill="#D9B8FF" font-family="sans-serif" font-size="11" textLength="58">: datetime</text><text x="26" y="202.828" fill="#D9B8FF" font-family="sans-serif" font-size="11" font-weight="bold" textLength="75">last_update</text><text x="101" y="202.828" fill="#D9B8FF" font-family="sans-serif" font-size="11" textLength="55">: duration</text><text x="26" y="225.632" fill="#D9B8FF" font-family="sans-serif" font-size="11" font-weight="bold" textLength="36">atime</text><text x="62" y="225.632" fill="#D9B8FF" font-family="sans-serif" font-size="11" textLength="58">: datetime</text><text x="26" y="248.437" fill="#D9B8FF" font-family="sans-serif" font-size="11" font-weight="bold" textLength="74">last_access</text><text x="100" y="248.437" fill="#D9B8FF" font-family="sans-serif" font-size="11" textLength="55">: duration</text><text x="26" y="271.242" fill="#D9B8FF" font-family="sans-serif" font-size="11" font-weight="bold" textLength="27">kind</text><text x="53" y="271.242" fill="#D9B8FF" font-family="sans-serif" font-size="11" textLength="41">: string</text></a><a xlink:actuate="onRequest" xlink:href="#d" xlink:show="new" xlink:title="#type" xlink:type="simple" target="_top"><rect id="d" width="79" height="39.789" x="189" y="872" fill="#3D176E" rx="2.5" ry="2.5" style="stroke:#000d19;stroke-width:1.5"/><circle cx="204" cy="891.894" r="11" fill="#E98DF7" style="stroke:#000d19;stroke-width:1"/><path d="M206.969 897.535q-.578.297-1.219.438-.64.156-1.344.156-2.5 0-3.828-1.64-1.312-1.657-1.312-4.782t1.312-4.781q1.328-1.657 3.828-1.657.703 0 1.344.157.656.156 1.219.453v2.719q-.625-.578-1.219-.844-.594-.281-1.219-.281-1.344 0-2.031 1.078-.688 1.062-.688 3.156 0 2.094.688 3.172.688 1.062 2.031 1.062.625 0 1.219-.265.594-.282 1.219-.86v2.72Z"/><text x="223" y="897.78" fill="#D9B8FF" font-family="Helvetica" font-size="17" textLength="37">type</text></a><a xlink:actuate="onRequest" xlink:href="#e" xlink:show="new" xlink:title="#aws_ec2_volume_type" xlink:type="simple" target="_top"><rect id="e" width="231" height="70.594" x="8" y="1247" fill="#3D176E" rx="2.5" ry="2.5" style="stroke:#000d19;stroke-width:1.5"/><circle cx="23" cy="1266.895" r="11" fill="#E98DF7" style="stroke:#000d19;stroke-width:1"/><path d="M25.969 1272.535q-.578.297-1.219.438-.64.156-1.344.156-2.5 0-3.828-1.64-1.312-1.657-1.312-4.782t1.312-4.781q1.328-1.656 3.828-1.656.703 0 1.344.156.656.156 1.219.453v2.719q-.625-.578-1.219-.844-.594-.281-1.219-.281-1.343 0-2.031 1.078-.688 1.062-.688 3.156 0 2.094.688 3.172.688 1.062 2.031 1.062.625 0 1.219-.265.594-.281 1.219-.86v2.72Z"/><text x="42" y="1272.78" fill="#D9B8FF" font-family="Helvetica" font-size="17" textLength="189">aws_ec2_volume_type</text><path d="M9 1286.789h229" style="stroke:#000d19;stroke-width:1.5"/><text x="19" y="1305.999" fill="#D9B8FF" font-family="sans-serif" font-size="11" font-weight="bold" textLength="21">arn</text><text x="40" y="1305.999" fill="#D9B8FF" font-family="sans-serif" font-size="11" textLength="41">: string</text></a><a xlink:actuate="onRequest" xlink:href="#f" xlink:show="new" xlink:title="#volume_type" xlink:type="simple" target="_top"><rect id="f" width="168" height="93.398" x="143.5" y="1033" fill="#3D176E" rx="2.5" ry="2.5" style="stroke:#000d19;stroke-width:1.5"/><circle cx="166.15" cy="1052.895" r="11" fill="#E98DF7" style="stroke:#000d19;stroke-width:1"/><path d="M169.119 1058.535q-.578.297-1.219.438-.64.156-1.344.156-2.5 0-3.828-1.64-1.312-1.657-1.312-4.782t1.312-4.781q1.328-1.656 3.828-1.656.703 0 1.344.156.656.156 1.219.453v2.719q-.625-.578-1.219-.844-.594-.281-1.219-.281-1.344 0-2.031 1.078-.688 1.062-.688 3.156 0 2.094.688 3.172.688 1.062 2.031 1.062.625 0 1.219-.265.594-.281 1.219-.86v2.72Z"/><text x="186.85" y="1058.78" fill="#D9B8FF" font-family="Helvetica" font-size="17" textLength="109">volume_type</text><path d="M144.5 1072.789h166" style="stroke:#000d19;stroke-width:1.5"/><text x="154.5" y="1091.999" fill="#D9B8FF" font-family="sans-serif" font-size="11" font-weight="bold" textLength="80">volume_type</text><text x="234.5" y="1091.999" fill="#D9B8FF" font-family="sans-serif" font-size="11" textLength="41">: string</text><text x="154.5" y="1114.804" fill="#D9B8FF" font-family="sans-serif" font-size="11" font-weight="bold" textLength="100">ondemand_cost</text><text x="254.5" y="1114.804" fill="#D9B8FF" font-family="sans-serif" font-size="11" textLength="46">: double</text></a><a xlink:actuate="onRequest" xlink:href="#g" xlink:show="new" xlink:title="#phantom_resource" xlink:type="simple" target="_top"><rect id="g" width="198" height="39.789" x="130.5" y="404" fill="#3D176E" rx="2.5" ry="2.5" style="stroke:#000d19;stroke-width:1.5"/><circle cx="145.5" cy="423.894" r="11" fill="#E98DF7" style="stroke:#000d19;stroke-width:1"/><path d="M148.469 429.535q-.578.297-1.219.438-.64.156-1.344.156-2.5 0-3.828-1.64-1.312-1.657-1.312-4.782t1.312-4.781q1.328-1.656 3.828-1.656.703 0 1.344.156.656.156 1.219.453v2.719q-.625-.579-1.219-.844-.594-.281-1.219-.281-1.344 0-2.031 1.078-.688 1.062-.688 3.156 0 2.094.688 3.172.688 1.062 2.031 1.062.625 0 1.219-.265.594-.281 1.219-.86v2.72Z"/><text x="164.5" y="429.78" fill="#D9B8FF" font-family="Helvetica" font-size="17" textLength="156">phantom_resource</text></a><path fill="none" d="M101.29 303.1c-5.27 73.91-11.09 155.54-14.31 200.62M94.32 302.45l8.41-19.45 5.56 20.45-13.97-1zM229.35 464.25c-.17 44.98-.44 119.08-.64 170.49M222.35 464.18l7.08-19.98 6.92 20.03-14-.05zM228.5 771.27v100.44M221.5 771.25l7-20 7 20h-14zM85.79 595.42c1.17 54.65 2.71 140.9 2.71 215.58v269.5c0 59.15 14.89 126.67 25.25 166.46M78.78 595.23l6.56-20.15 7.44 19.85-14 .3zM194.55 1144.17c-17.55 33.94-38.47 74.37-53.05 102.54M188.49 1140.66l15.41-14.55-2.97 20.98-12.44-6.43zM228.29 932.16c-.16 29.4-.38 69.72-.54 100.6M221.29 932.12l7.11-19.97 6.89 20.04-14-.07zM178.32 301.83c17.26 40.86 33.65 79.68 43.05 101.92M171.82 304.43l-1.33-21.15 14.23 15.7-12.9 5.45z" style="stroke:#ffaf37;stroke-width:2"/></svg>
